X:1
T: Jackie and Lawson Thompson
C:
R:Strathspey
Q: 128
K:F
M:4/4
L:1/16
|:C4|F4 c3B A3G F3E|D4 G3F EC3 C4|F4 c3B A3G F3E|DG3 A3F G4C4|
F4 c3B A3G F2E2|D4 G3F EC3 C4|D3E F3G Ac3 B3A|D3G EC3 F4:|
|:F4|f4 f3e d3c Ac3|d4 f3d cA3 A3G|F3F F3G A3F Af3|F3G AF3 G4C4|
F4 c3B A3G F2E2|D4 G3F EC3 C4|D3E F3G Ac3 B3A|D3G EC3 F4:|
